icons/share-24.svg

<svg width="24" height="24" viewBox="0 0 24 24" xmlns="http://www.w3.org/2000/svg">
  <path fill-rule="evenodd" clip-rule="evenodd" d="M12.5303 1.21967C12.2374 0.926777 11.7626 0.926777 11.4697 1.21967L8.21967 4.46967C7.92678 4.76256 7.92678 5.23744 8.21967 5.53033C8.51256 5.82322 8.98744 5.82322 9.28033 5.53033L11.25 3.56066V14.25C11.25 14.6642 11.5858 15 12 15C12.4142 15 12.75 14.6642 12.75 14.25V3.56066L14.7197 5.53033C15.0126 5.82322 15.4874 5.82322 15.7803 5.53033C16.0732 5.23744 16.0732 4.76256 15.7803 4.46967L12.5303 1.21967ZM5.5 9.75C5.5 9.61193 5.61193 9.5 5.75 9.5H8.25C8.66421 9.5 9 9.16421 9 8.75C9 8.33579 8.66421 8 8.25 8H5.75C4.7835 8 4 8.7835 4 9.75V20.25C4 21.2165 4.7835 22 5.75 22H18.25C19.2165 22 20 21.2165 20 20.25V9.75C20 8.7835 19.2165 8 18.25 8H15.75C15.3358 8 15 8.33579 15 8.75C15 9.16421 15.3358 9.5 15.75 9.5H18.25C18.3881 9.5 18.5 9.61193 18.5 9.75V20.25C18.5 20.3881 18.3881 20.5 18.25 20.5H5.75C5.61193 20.5 5.5 20.3881 5.5 20.25V9.75Z"/>
</svg>

<svg xmlns="http://www.w3.org/2000/svg" width="24" height="24" viewBox="0 0 24 24"><path fill-rule="evenodd" d="M12.53 1.22a.75.75 0 00-1.06 0L8.22 4.47a.75.75 0 001.06 1.06l1.97-1.97v10.69a.75.75 0 001.5 0V3.56l1.97 1.97a.75.75 0 101.06-1.06l-3.25-3.25zM5.5 9.75a.25.25 0 01.25-.25h2.5a.75.75 0 000-1.5h-2.5A1.75 1.75 0 004 9.75v10.5c0 .966.784 1.75 1.75 1.75h12.5A1.75 1.75 0 0020 20.25V9.75A1.75 1.75 0 0018.25 8h-2.5a.75.75 0 000 1.5h2.5a.25.25 0 01.25.25v10.5a.25.25 0 01-.25.25H5.75a.25.25 0 01-.25-.25V9.75z"/></svg>
